src/assets/img/icons/lineal/box.svg

<svg xmlns="http://www.w3.org/2000/svg" viewBox="0 0 512 426.46"><path class="lineal-stroke" d="M411.56 426.46H100.44a65.1 65.1 0 01-65-65V58.82a14.71 14.71 0 0129.41 0v302.62a35.65 35.65 0 0035.61 35.61h311.1a35.65 35.65 0 0035.61-35.61V174a14.71 14.71 0 1129.41 0v187.44a65.1 65.1 0 01-65.02 65.02z"/><path class="lineal-fill" d="M14.71 14.7H497.3v102.14H14.71z"/><path class="lineal-stroke" d="M497.29 131.56H14.71A14.71 14.71 0 010 116.85V14.71A14.71 14.71 0 0114.71 0h482.58A14.71 14.71 0 01512 14.71v102.14a14.71 14.71 0 01-14.71 14.71zM29.41 102.15h453.18V29.41H29.41zm305.26 133.14H177.33a14.71 14.71 0 01-14.71-14.71v-44.11a14.71 14.71 0 1129.41 0v29.41H320v-29.41a14.71 14.71 0 1129.41 0v44.11a14.71 14.71 0 01-14.74 14.71z"/><path class="lineal-fill" d="M50.12 352.93v8.51a50.31 50.31 0 0050.32 50.31h311.12a50.31 50.31 0 0050.32-50.31v-8.51z"/><path class="lineal-stroke" d="M411.56 426.46H100.44a65.1 65.1 0 01-65-65v-8.51a14.7 14.7 0 0114.7-14.7h411.74a14.7 14.7 0 0114.7 14.7v8.51a65.1 65.1 0 01-65.02 65zM65.37 367.64a35.67 35.67 0 0035.07 29.41h311.12a35.67 35.67 0 0035.07-29.41z"/></svg>

<svg xmlns="http://www.w3.org/2000/svg" viewBox="0 0 512 426.46"><path class="lineal-stroke" d="M411.56,426.46H100.44a65.1,65.1,0,0,1-65-65V58.82a14.71,14.71,0,0,1,29.41,0V361.44a35.65,35.65,0,0,0,35.61,35.61H411.56a35.65,35.65,0,0,0,35.61-35.61V174a14.71,14.71,0,1,1,29.41,0V361.44A65.1,65.1,0,0,1,411.56,426.46Z"/><rect class="lineal-fill" x="14.71" y="14.7" width="482.59" height="102.14"/><path class="lineal-stroke" d="M497.29,131.56H14.71A14.71,14.71,0,0,1,0,116.85V14.71A14.71,14.71,0,0,1,14.71,0H497.29A14.71,14.71,0,0,1,512,14.71V116.85A14.71,14.71,0,0,1,497.29,131.56ZM29.41,102.15H482.59V29.41H29.41Z"/><path class="lineal-stroke" d="M334.67,235.29H177.33a14.71,14.71,0,0,1-14.71-14.71V176.47a14.71,14.71,0,1,1,29.41,0v29.41H320V176.47a14.71,14.71,0,1,1,29.41,0v44.11A14.71,14.71,0,0,1,334.67,235.29Z"/><path class="lineal-fill" d="M50.12,352.93v8.51a50.31,50.31,0,0,0,50.32,50.31H411.56a50.31,50.31,0,0,0,50.32-50.31v-8.51Z"/><path class="lineal-stroke" d="M411.56,426.46H100.44a65.1,65.1,0,0,1-65-65v-8.51a14.7,14.7,0,0,1,14.7-14.7H461.88a14.7,14.7,0,0,1,14.7,14.7v8.51A65.1,65.1,0,0,1,411.56,426.46ZM65.37,367.64a35.67,35.67,0,0,0,35.07,29.41H411.56a35.67,35.67,0,0,0,35.07-29.41Z"/></svg>
